resources/login.svg

<svg xmlns="http://www.w3.org/2000/svg" width="24" height="24" fill="#f4f4f7" viewBox="0 0 24 24"><path stroke="#555e70" stroke-linecap="round" stroke-linejoin="round" stroke-width="2" d="M11 16L7 12M7 12L11 8M7 12L21 12M16 16V17C16 18.6569 14.6569 20 13 20H6C4.34315 20 3 18.6569 3 17V7C3 5.34315 4.34315 4 6 4H13C14.6569 4 16 5.34315 16 7V8"/></svg>

<svg width="24" height="24" fill="#f4f4f7">
  <path stroke="#555e70" stroke-linecap="round" stroke-linejoin="round" stroke-width="2" d="m11 16-4-4m0 0 4-4m-4 4h14m-5 4v1a3 3 0 0 1-3 3H6a3 3 0 0 1-3-3V7a3 3 0 0 1 3-3h7a3 3 0 0 1 3 3v1"/>
</svg>
